src/ios-basket-outline.svg

<svg xmlns="http://www.w3.org/2000/svg" viewBox="0 0 512 512" xml:space="preserve"><path d="M400 224v-96c0-35.2-28.8-64-64-64H176c-35.2 0-64 28.8-64 64v96H32l52.5 194.3c4.7 17 20.4 29.7 39.1 29.7h264.7c18.7 0 34.4-12.5 39.3-29.5L480 224h-80zm59 16h.1l-12.9 48H368v-48h91zM70.2 304H144v64H87.5l-17.3-64zm89.8 0h88v64h-88v-64zm192-16h-88v-48h88v48zm-104 0h-88v-48h88v48zm0 96v48h-88v-48h88zm16 0h88v48h-88v-48zm0-16v-64h88v64h-88zm104-64h73.9l-17.2 64H368v-64zM128 128c0-12.8 5-24.8 14.1-33.9C151.2 85 163.2 80 176 80h160c12.8 0 24.8 5 33.9 14.1 9.1 9.1 14.1 21.1 14.1 33.9v96H128v-96zm16 112v48H65.9l-13-48H144zm-44 174.1L91.8 384H144v48h-20.4c-11 0-20.7-7.3-23.6-17.9zm312.3.1c-3.1 10.5-12.9 17.8-23.9 17.8H368v-48h52.4l-8.1 30.2z"/></svg>

<?xml version="1.0" encoding="utf-8"?>
<!-- Generator: Adobe Illustrator 18.1.1, SVG Export Plug-In . SVG Version: 6.00 Build 0)  -->
<svg version="1.1" id="Layer_1" xmlns="http://www.w3.org/2000/svg" xmlns:xlink="http://www.w3.org/1999/xlink" x="0px" y="0px"
	 viewBox="0 0 512 512" enable-background="new 0 0 512 512" xml:space="preserve">
<path d="M400,224v-96c0-35.2-28.8-64-64-64H176c-35.2,0-64,28.8-64,64v96H32l52.5,194.3c4.7,17,20.4,29.7,39.1,29.7h264.7
	c18.7,0,34.4-12.5,39.3-29.5L480,224H400z M459,240h0.1l-12.9,48H368v-48H459z M70.2,304H144v64H87.5L70.2,304z M160,304h88v64h-88
	V304z M352,288h-88v-48h88V288z M248,288h-88v-48h88V288z M248,384v48h-88v-48H248z M264,384h88v48h-88V384z M264,368v-64h88v64H264
	z M368,304h73.9l-17.2,64H368V304z M128,128c0-12.8,5-24.8,14.1-33.9C151.2,85,163.2,80,176,80h160c12.8,0,24.8,5,33.9,14.1
	c9.1,9.1,14.1,21.1,14.1,33.9v96H128V128z M144,240v48H65.9l-13-48H144z M100,414.1L91.8,384H144v48h-20.4
	C112.6,432,102.9,424.7,100,414.1z M412.3,414.2c-3.1,10.5-12.9,17.8-23.9,17.8H368v-48h52.4L412.3,414.2z"/>
</svg>
